X:17
T:Grand Turks Dance. THO5.017, The
M:6/3
L:1/8
B:Thompson's Complete Collection of 200 Favourite Dances Vol.5
F:https://www.libraryofdance.org/manuals/1780c-Thompson-Compleat-5.pdf
Z:vmp. Peter Dunk 2024
Q:3/8=100
K:Bb
F|BFF DFF|BFF dBB|cFF DFF|cFF ecc|
dBB dfd|cAc cfc|dcB ABG|F3-F2:|
|:F|ecc Fcc|dBB fdd|geB EGB|efg gfe|
fdB DFB|def fed|ecA FAc|dBB B2:|
W:
W:Hey contrary sides ./. Hey on your own sides ./:
W:Lead down the midlle, up again, cast off :/. Left and Right :/:

